!!!COM: Bach, Johann Sebastian
!!!CDT: 1685/3//-1750/7/28/
!!!OTL@@DE: Ach wie fluechtig, ach wie nichtig
!!!AGN: 4-Part Chorale
!!!OPR: Cantata, BWV 26
!!!SCT: BH 048
!!!SCT: BWV 26
**harm	**root	**kern	**kern	**kern	**kern
!	!	!bass	!tenor	!alto	!soprno
*	*Iorgan	*Iorgan	*Iorgan	*Iorgan	*Iorgan
*	*	*clefF4	*clefF4	*clefG2	*clefG2
*M4/4	*M4/4	*M4/4	*M4/4	*M4/4	*M4/4
*met(c)	*met(c)	*met(c)	*met(c)	*met(c)	*met(c)
*MM60	*MM60	*MM60	*MM60	*MM60	*MM60
*k[f#c#g#d#]	*k[f#c#g#d#]	*k[f#c#g#d#]	*k[f#c#g#d#]	*k[f#c#g#d#]	*k[f#c#g#d#]
*c#:	*c#:	*c#:	*c#:	*c#:	*c#:
=1-	=1-	=1-	=1-	=1-	=1-
i	4AA	4c#	4e	4g#	4cc#
Vb	4EE	4B#	4d#	4g#	4dd#
i	4AA	4c#	4c#	4g#	4ee
i;	4AA;	4C#;	4c#;	4g#;	4ee;
=2	=2	=2	=2	=2	=2
i	4AA	4c#	4c#	4g#	4ee
V/III	4GG	4B	4d#	4b	4ff#
I/III	4CC	4e	4e	4b	4gg#
I/III;	4CC;	4E;	4e;	4b;	4gg#;
=3	=3	=3	=3	=3	=3
I/III	4CC	8e	8e	4b	4gg#
.	.	8d#	8f#	.	.
i	4AA	8c#	8e	[4ee	4gg#
.	.	8B	8d#	.	.
V7b/-VII	8DD	8A#	8c#	8ee]	4ff#
viio	8GG#	8B#	8d#	4dd#	.
i	4AA	4c#	8e	.	4ee
.	.	.	8g#	8cc#	.
=4	=4	=4	=4	=4	=4
iv7	4DD	4F#	4a	4cc#	4.dd#
V	4EE	4G#	8g#	4b#	.
.	.	.	8f#	.	8cc#
I;	2AA;	2C#;	2e#;	2g#;	2cc#;
=5	=5	=5	=5	=5	=5
I	4AA	8c#	8e#	4cc#	4gg#
.	.	8d#	8f#	.	.
Ib	4AA	8e#	8g#	4cc#	4gg#
.	.	8c#	8e#	.	.
iv	4DD	8f#	4f#	4cc#	4aa
.	.	8e	.	.	.
-II	4BB-	8d	4f#	4dd	4aa
.	.	8c#	.	.	.
!!linebreak: 2
=6	=6	=6	=6	=6	=6
viiD7/VI	4EE	8B	4f#	4dd	4gg#
.	.	8G#	.	.	.
V/IV	4AA	4c#	4e#	8cc#	4gg#
.	.	.	.	8b	.
IV	4DD	4F#	4f#	8b	4gg#
.	.	.	.	8g#	.
IV;	4DD;	4F#;	4c#;	4a#;	4ff#;
*E:	*E:	*E:	*E:	*E:	*E:
=7	=7	=7	=7	=7	=7
V	4GG	8B	8d#	4b	4ff#
.	.	8c#	8e	.	.
Vb	4GG	8d#	8f#	4b	4ff#
.	.	8B	8d#	.	.
I	4CC	8e	4e	4b	4gg#
.	.	8d#	.	.	.
vi	4AA	8c#	4e	4cc#	4gg#
.	.	8B	.	.	.
=8	=8	=8	=8	=8	=8
ii7b	4DD	8A	4e	4cc#	4ff#
.	.	8F#	.	.	.
V	4GG	4B	4d#	8b	4ff#
.	.	.	.	8a	.
I	4CC	4E	4e	8a	4ee
.	.	.	.	8f#	.
I;	4CC;	4E;	4B;	4g#;	4ee;
*c#:	*c#:	*c#:	*c#:	*c#:	*c#:
=9	=9	=9	=9	=9	=9
VI	4FF	4A	4c#	4a	4ee
iv	4DD	8G#	4c#	4a	4ff#
.	.	8F#	.	.	.
Vb	4EE	8B#	4d#	4g#	4gg#
.	.	8G#	.	.	.
I	4AA	4c#	4c#	4g#	8ff#
.	.	.	.	.	8ee
=10	=10	=10	=10	=10	=10
V7b/V	4BB	4F##	4c#	4a#	4dd#
V	4EE	4G#	4B#	8g#	4dd#
.	.	.	.	8f#	.
I	4AA	4c#	4c#	8f#	4cc#
.	.	.	.	8d#	.
I;	4AA;	4C#;	4G#;	4e#;	4cc#;
====	====	====	====	====	====
*-	*-	*-	*-	*-	*-
!!chor2scor: -l 2 -s 0.6 -o %b.pmx
!!!YEC: Copyright 1994, David Huron
!!!YEC: Changes/Additions 2001 by Craig Stuart Sapp
!!!YEN: United States of America
!!!SMA: 371 Bach Chorales, edited by Ludwig Erk, C.F. Peters
!!!PDT: 1850, 1865
